src/images/logo/logo-brown.svg

<svg fill="none" height="1080" viewBox="0 0 1080 1080" width="1080" xmlns="http://www.w3.org/2000/svg"><path d="m0 0h1080v1080h-1080z" fill="#8b7262"/><path d="m278.552 367.152h51.84l64.512 192.96 15.84 2.88v19.008h-90.72v-19.008l20.448-2.88-9.792-34.56h-68.832l-9.792 34.848 22.464 2.592v19.008h-76.608l-.288-19.008 16.704-3.168zm21.312 50.112-4.32-20.16-4.608 20.448-23.328 85.824h57.024zm142.569 145.728 22.176-2.88v-168.192l-21.024-4.032v-19.872h44.352c3.648 0 7.584-.096 11.808-.288 4.416-.192 7.776-.384 10.08-.576 10.368-.768 19.2-1.152 26.496-1.152 20.544 0 36.864 2.016 48.96 6.048 12.096 3.84 20.832 9.984 26.208 18.432 5.568 8.256 8.352 19.2 8.352 32.832 0 13.056-3.456 25.248-10.368 36.576s-17.088 19.104-30.528 23.328c8.832 3.264 16.224 9.408 22.176 18.432 6.144 8.832 12.48 20.16 19.008 33.984 3.84 8.064 6.912 14.112 9.216 18.144 2.304 3.84 4.704 6.048 7.2 6.624l8.352 2.592v19.008h-54.72c-2.88 0-5.856-3.072-8.928-9.216s-7.008-15.744-11.808-28.8c-5.952-15.936-11.136-28.224-15.552-36.864-4.224-8.832-8.928-14.208-14.112-16.128h-25.92v69.12l25.632 2.88v19.008h-97.056zm93.6-90.72c9.984 0 17.76-3.84 23.328-11.52 5.568-7.872 8.352-19.68 8.352-35.424 0-13.824-2.784-23.904-8.352-30.24-5.376-6.528-14.496-9.792-27.36-9.792-6.912 0-12.96.48-18.144 1.44v84.672c2.496.576 6.624.864 12.384.864zm212.96-82.944-36 1.44-12.096 64.224h-27.072l4.608-86.976h189.792l3.744 86.976h-25.632l-12.672-64.224-34.848-1.44v170.496l40.032 3.168v19.008h-126.432v-19.008l36.576-3.168z" fill="#383737"/><path d="m270.756 707.312c-.096.384-.144.96-.144 1.728 0 2.496.96 3.744 2.88 3.744 1.536 0 3.696-1.152 6.48-3.456l2.016 4.464c-1.248 1.92-3.504 4.032-6.768 6.336-3.168 2.208-6.864 3.312-11.088 3.312-3.264 0-5.856-.72-7.776-2.16s-2.928-3.648-3.024-6.624l.288-2.448c-2.688 3.168-5.952 5.856-9.792 8.064-3.84 2.112-8.064 3.168-12.672 3.168-8.064 0-14.112-2.736-18.144-8.208-3.936-5.568-5.904-12.816-5.904-21.744 0-8.832 1.824-17.328 5.472-25.488 3.744-8.16 9.168-14.832 16.272-20.016s15.552-7.776 25.344-7.776c2.496 0 5.184.288 8.064.864 2.976.576 5.568 1.248 7.776 2.016l9.936-2.88zm-11.088-56.88c-1.824-.864-4.176-1.296-7.056-1.296-5.76 0-10.56 2.208-14.4 6.624-3.84 4.32-6.672 9.84-8.496 16.56-1.728 6.624-2.592 13.344-2.592 20.16 0 6.336.96 11.28 2.88 14.832 1.92 3.456 4.752 5.184 8.496 5.184 2.4 0 4.8-.816 7.2-2.448 2.496-1.632 4.704-3.552 6.624-5.76zm50.964 29.952c-.384 3.552-.72 6.048-1.008 7.488-.96 7.488-1.44 12.288-1.44 14.4 0 3.84.672 6.576 2.016 8.208s3.36 2.448 6.048 2.448c3.072 0 6.096-.96 9.072-2.88 3.072-1.92 5.664-4.224 7.776-6.912l8.352-62.208h19.008l-9.216 66.672c-.192 1.728-.048 3.024.432 3.888s1.2 1.296 2.16 1.296c.864 0 1.776-.24 2.736-.72.96-.576 2.304-1.584 4.032-3.024l2.016 4.464c-1.248 2.016-3.552 4.176-6.912 6.48s-7.2 3.456-11.52 3.456c-3.36 0-5.952-.72-7.776-2.16-1.728-1.44-2.688-3.408-2.88-5.904l-.144-1.728c0-.768.096-1.728.288-2.88l-.288-.144c-7.104 8.544-15.456 12.816-25.056 12.816-5.376 0-9.936-1.44-13.68-4.32-3.744-2.976-5.664-7.68-5.76-14.112 0-3.744.672-10.512 2.016-20.304.384-2.4.624-4.032.72-4.896l3.888-26.208-8.352-4.896 1.152-5.904 23.904-2.448 3.312 1.584zm97.284-45.216c.96-5.76 2.832-10.944 5.616-15.552 2.88-4.608 6.528-8.256 10.944-10.944s9.36-4.032 14.832-4.032c5.088 0 9.12.576 12.096 1.728l-4.032 11.52c-2.784-2.112-6-3.168-9.648-3.168-3.552 0-6.144 1.344-7.776 4.032-1.536 2.688-2.688 6.816-3.456 12.384l-1.44 10.512h15.84l-1.872 10.8h-15.408l-7.92 63.936c-1.536 11.808-5.04 21.696-10.512 29.664-5.376 7.968-12.576 12-21.6 12.096-2.208.096-4.512 0-6.912-.288-2.496-.288-4.464-.624-5.904-1.008l3.744-12.096c1.248.576 3.072 1.2 5.472 1.872 2.304.768 4.176 1.152 5.616 1.152 2.592 0 4.608-1.296 6.048-3.888 1.536-2.496 2.64-6.288 3.312-11.376l9.936-80.064h-9.216l1.296-6.336 9.792-4.176zm87.681 72.432c-2.496 3.936-6.576 7.632-12.24 11.088-5.568 3.456-12.048 5.184-19.44 5.184-6.912 0-12.624-1.488-17.136-4.464-4.416-2.976-7.632-6.864-9.648-11.664s-3.024-10.032-3.024-15.696c0-9.6 1.92-18.336 5.76-26.208 3.936-7.968 9.264-14.256 15.984-18.864s14.208-6.912 22.464-6.912c7.392 0 12.864 1.728 16.416 5.184 3.648 3.36 5.472 7.776 5.472 13.248 0 6.912-2.496 12.672-7.488 17.28s-10.992 8.064-18 10.368c-7.008 2.208-13.632 3.408-19.872 3.6-.192 6.912.912 12.48 3.312 16.704 2.496 4.224 6.24 6.336 11.232 6.336 8.256 0 15.744-3.84 22.464-11.52zm-21.6-58.608c-5.664 0-10.128 3.408-13.392 10.224s-5.184 14.4-5.76 22.752c3.744-.192 7.68-1.2 11.808-3.024 4.224-1.824 7.728-4.368 10.512-7.632 2.88-3.36 4.32-7.2 4.32-11.52 0-3.456-.672-6.096-2.016-7.92-1.248-1.92-3.072-2.88-5.472-2.88zm17.712-53.856 11.664 11.376c-.864 1.536-3.12 4.032-6.768 7.488-3.648 3.36-7.584 6.672-11.808 9.936s-7.68 5.472-10.368 6.624l-5.472-5.328zm39.81 62.64c3.456-5.184 7.584-9.408 12.384-12.672s9.84-4.896 15.12-4.896c5.376 0 9.552 1.44 12.528 4.32 3.072 2.784 4.848 7.296 5.328 13.536 3.36-5.568 7.44-9.936 12.24-13.104 4.896-3.168 10.176-4.752 15.84-4.752 12 0 18 7.056 18 21.168 0 3.072-.96 10.176-2.88 21.312l-.576 3.744-.72 3.744c-1.632 8.928-2.496 15.072-2.592 18.432 0 2.784.816 4.176 2.448 4.176.864 0 1.776-.24 2.736-.72 1.056-.576 2.448-1.584 4.176-3.024l1.872 4.464c-1.344 2.016-3.696 4.176-7.056 6.48s-7.392 3.456-12.096 3.456c-4.512 0-7.632-.912-9.36-2.736s-2.592-4.272-2.592-7.344c0-1.92.288-4.704.864-8.352.576-3.744 1.2-7.488 1.872-11.232l.576-3.312c1.152-6.528 1.968-11.664 2.448-15.408.576-3.744.864-7.392.864-10.944 0-4.416-.528-7.44-1.584-9.072-.96-1.632-2.688-2.448-5.184-2.448-3.072 0-6.432 1.488-10.08 4.464-3.552 2.976-6.624 6.768-9.216 11.376-.384 5.664-1.008 11.664-1.872 18l-4.464 35.568h-19.44l4.176-31.392c1.728-11.904 2.592-20.928 2.592-27.072-.096-4.416-.72-7.344-1.872-8.784-1.056-1.44-2.976-2.16-5.76-2.16-3.072 0-6.576 1.68-10.512 5.04-3.84 3.36-7.056 7.392-9.648 12.096l-7.2 52.272h-18.72l9.216-68.544-7.344-3.888 1.152-5.904 22.464-3.456 3.312 1.584zm123.594 49.824c-.096.48-.144 1.056-.144 1.728 0 2.304.816 3.456 2.448 3.456.864 0 1.824-.288 2.88-.864s2.4-1.536 4.032-2.88l1.872 4.464c-1.632 2.208-4.08 4.416-7.344 6.624-3.168 2.208-7.056 3.312-11.664 3.312-3.744 0-6.672-.72-8.784-2.16-2.112-1.536-3.168-3.6-3.168-6.192l.144-1.44c.576-4.992 2.544-19.488 5.904-43.488l2.304-16.704-8.496-4.032 1.008-5.616 24.768-3.456 3.456 1.584zm1.584-81.072c-2.592 0-4.848-.96-6.768-2.88-1.824-2.016-2.736-4.32-2.736-6.912 0-3.552 1.152-6.528 3.456-8.928 2.4-2.4 5.424-3.6 9.072-3.6 2.976 0 5.328.96 7.056 2.88 1.728 1.824 2.592 4.032 2.592 6.624 0 3.648-1.104 6.72-3.312 9.216-2.208 2.4-5.328 3.6-9.36 3.6zm43.094 31.104c3.552-5.28 7.776-9.504 12.672-12.672s10.032-4.752 15.408-4.752c11.904 0 17.856 7.056 17.856 21.168 0 3.744-1.2 12.096-3.6 25.056-.384 2.496-.72 4.416-1.008 5.76-1.344 7.584-2.064 13.056-2.16 16.416v.576c0 2.4.768 3.6 2.304 3.6.864 0 1.776-.24 2.736-.72s2.208-1.344 3.744-2.592l2.016 4.464c-1.44 2.016-3.792 4.128-7.056 6.336-3.264 2.112-7.248 3.168-11.952 3.168-4.512 0-7.632-.96-9.36-2.88-1.728-2.016-2.592-4.656-2.592-7.92.096-2.88 1.008-8.592 2.736-17.136l.864-4.896c.192-.864.576-3.168 1.152-6.912.672-3.744 1.2-7.296 1.584-10.656.384-3.456.576-6.432.576-8.928 0-4.416-.528-7.44-1.584-9.072-.96-1.632-2.736-2.448-5.328-2.448-3.168 0-6.72 1.776-10.656 5.328-3.84 3.552-7.152 7.824-9.936 12.816l-6.912 51.264h-18.864l9.216-68.544-7.344-3.888 1.152-5.904 22.464-3.456 3.312 1.584zm78.031 49.968c-.096.48-.144 1.056-.144 1.728 0 2.304.816 3.456 2.448 3.456.864 0 1.824-.288 2.88-.864s2.4-1.536 4.032-2.88l1.872 4.464c-1.632 2.208-4.08 4.416-7.344 6.624-3.168 2.208-7.056 3.312-11.664 3.312-3.744 0-6.672-.72-8.784-2.16-2.112-1.536-3.168-3.6-3.168-6.192l.144-1.44c.576-4.992 2.544-19.488 5.904-43.488l2.304-16.704-8.496-4.032 1.008-5.616 24.768-3.456 3.456 1.584zm1.584-81.072c-2.592 0-4.848-.96-6.768-2.88-1.824-2.016-2.736-4.32-2.736-6.912 0-3.552 1.152-6.528 3.456-8.928 2.4-2.4 5.424-3.6 9.072-3.6 2.976 0 5.328.96 7.056 2.88 1.728 1.824 2.592 4.032 2.592 6.624 0 3.648-1.104 6.72-3.312 9.216-2.208 2.4-5.328 3.6-9.36 3.6zm43.094 31.104c3.552-5.28 7.776-9.504 12.672-12.672s10.032-4.752 15.408-4.752c11.904 0 17.856 7.056 17.856 21.168 0 3.744-1.2 12.096-3.6 25.056-.384 2.496-.72 4.416-1.008 5.76-1.344 7.584-2.064 13.056-2.16 16.416v.576c0 2.4.768 3.6 2.304 3.6.864 0 1.776-.24 2.736-.72s2.208-1.344 3.744-2.592l2.016 4.464c-1.44 2.016-3.792 4.128-7.056 6.336-3.264 2.112-7.248 3.168-11.952 3.168-4.512 0-7.632-.96-9.36-2.88-1.728-2.016-2.592-4.656-2.592-7.92.096-2.88 1.008-8.592 2.736-17.136l.864-4.896c.192-.864.576-3.168 1.152-6.912.672-3.744 1.2-7.296 1.584-10.656.384-3.456.576-6.432.576-8.928 0-4.416-.528-7.44-1.584-9.072-.96-1.632-2.736-2.448-5.328-2.448-3.168 0-6.72 1.776-10.656 5.328-3.84 3.552-7.152 7.824-9.936 12.816l-6.912 51.264h-18.864l9.216-68.544-7.344-3.888 1.152-5.904 22.464-3.456 3.312 1.584z" fill="#fff"/></svg>

<svg width="1080" height="1080" viewBox="0 0 1080 1080" fill="none" xmlns="http://www.w3.org/2000/svg">
<rect width="1080" height="1080" fill="#8B7262"/>
<path d="M278.552 367.152H330.392L394.904 560.112L410.744 562.992V582H320.024V562.992L340.472 560.112L330.68 525.552H261.848L252.056 560.4L274.52 562.992V582H197.912L197.624 562.992L214.328 559.824L278.552 367.152ZM299.864 417.264L295.544 397.104L290.936 417.552L267.608 503.376H324.632L299.864 417.264ZM442.433 562.992L464.609 560.112V391.92L443.585 387.888V368.016H487.937C491.585 368.016 495.521 367.92 499.745 367.728C504.161 367.536 507.521 367.344 509.825 367.152C520.193 366.384 529.025 366 536.321 366C556.865 366 573.185 368.016 585.281 372.048C597.377 375.888 606.113 382.032 611.489 390.48C617.057 398.736 619.841 409.68 619.841 423.312C619.841 436.368 616.385 448.56 609.473 459.888C602.561 471.216 592.385 478.992 578.945 483.216C587.777 486.48 595.169 492.624 601.121 501.648C607.265 510.48 613.601 521.808 620.129 535.632C623.969 543.696 627.041 549.744 629.345 553.776C631.649 557.616 634.049 559.824 636.545 560.4L644.897 562.992V582H590.177C587.297 582 584.321 578.928 581.249 572.784C578.177 566.64 574.241 557.04 569.441 543.984C563.489 528.048 558.305 515.76 553.889 507.12C549.665 498.288 544.961 492.912 539.777 490.992H513.857V560.112L539.489 562.992V582H442.433V562.992ZM536.033 472.272C546.017 472.272 553.793 468.432 559.361 460.752C564.929 452.88 567.713 441.072 567.713 425.328C567.713 411.504 564.929 401.424 559.361 395.088C553.985 388.56 544.865 385.296 532.001 385.296C525.089 385.296 519.041 385.776 513.857 386.736V471.408C516.353 471.984 520.481 472.272 526.241 472.272C532.001 472.272 535.265 472.272 536.033 472.272ZM748.993 389.328L712.993 390.768L700.897 454.992H673.825L678.433 368.016H868.225L871.969 454.992H846.337L833.665 390.768L798.817 389.328V559.824L838.849 562.992V582H712.417V562.992L748.993 559.824V389.328Z" fill="#383737"/>
<path d="M270.756 707.312C270.66 707.696 270.612 708.272 270.612 709.04C270.612 711.536 271.572 712.784 273.492 712.784C275.028 712.784 277.188 711.632 279.972 709.328L281.988 713.792C280.74 715.712 278.484 717.824 275.22 720.128C272.052 722.336 268.356 723.44 264.132 723.44C260.868 723.44 258.276 722.72 256.356 721.28C254.436 719.84 253.428 717.632 253.332 714.656L253.62 712.208C250.932 715.376 247.668 718.064 243.828 720.272C239.988 722.384 235.764 723.44 231.156 723.44C223.092 723.44 217.044 720.704 213.012 715.232C209.076 709.664 207.108 702.416 207.108 693.488C207.108 684.656 208.932 676.16 212.58 668C216.324 659.84 221.748 653.168 228.852 647.984C235.956 642.8 244.404 640.208 254.196 640.208C256.692 640.208 259.38 640.496 262.26 641.072C265.236 641.648 267.828 642.32 270.036 643.088L279.972 640.208L270.756 707.312ZM259.668 650.432C257.844 649.568 255.492 649.136 252.612 649.136C246.852 649.136 242.052 651.344 238.212 655.76C234.372 660.08 231.54 665.6 229.716 672.32C227.988 678.944 227.124 685.664 227.124 692.48C227.124 698.816 228.084 703.76 230.004 707.312C231.924 710.768 234.756 712.496 238.5 712.496C240.9 712.496 243.3 711.68 245.7 710.048C248.196 708.416 250.404 706.496 252.324 704.288L259.668 650.432ZM310.632 680.384C310.248 683.936 309.912 686.432 309.624 687.872C308.664 695.36 308.184 700.16 308.184 702.272C308.184 706.112 308.856 708.848 310.2 710.48C311.544 712.112 313.56 712.928 316.248 712.928C319.32 712.928 322.344 711.968 325.32 710.048C328.392 708.128 330.984 705.824 333.096 703.136L341.448 640.928H360.456L351.24 707.6C351.048 709.328 351.192 710.624 351.672 711.488C352.152 712.352 352.872 712.784 353.832 712.784C354.696 712.784 355.608 712.544 356.568 712.064C357.528 711.488 358.872 710.48 360.6 709.04L362.616 713.504C361.368 715.52 359.064 717.68 355.704 719.984C352.344 722.288 348.504 723.44 344.184 723.44C340.824 723.44 338.232 722.72 336.408 721.28C334.68 719.84 333.72 717.872 333.528 715.376L333.384 713.648C333.384 712.88 333.48 711.92 333.672 710.768L333.384 710.624C326.28 719.168 317.928 723.44 308.328 723.44C302.952 723.44 298.392 722 294.648 719.12C290.904 716.144 288.984 711.44 288.888 705.008C288.888 701.264 289.56 694.496 290.904 684.704C291.288 682.304 291.528 680.672 291.624 679.808L295.512 653.6L287.16 648.704L288.312 642.8L312.216 640.352L315.528 641.936L310.632 680.384ZM407.916 635.168C408.876 629.408 410.748 624.224 413.532 619.616C416.412 615.008 420.06 611.36 424.476 608.672C428.892 605.984 433.836 604.64 439.308 604.64C444.396 604.64 448.428 605.216 451.404 606.368L447.372 617.888C444.588 615.776 441.372 614.72 437.724 614.72C434.172 614.72 431.58 616.064 429.948 618.752C428.412 621.44 427.26 625.568 426.492 631.136L425.052 641.648H440.892L439.02 652.448H423.612L415.692 716.384C414.156 728.192 410.652 738.08 405.18 746.048C399.804 754.016 392.604 758.048 383.58 758.144C381.372 758.24 379.068 758.144 376.668 757.856C374.172 757.568 372.204 757.232 370.764 756.848L374.508 744.752C375.756 745.328 377.58 745.952 379.98 746.624C382.284 747.392 384.156 747.776 385.596 747.776C388.188 747.776 390.204 746.48 391.644 743.888C393.18 741.392 394.284 737.6 394.956 732.512L404.892 652.448H395.676L396.972 646.112L406.764 641.936L407.916 635.168ZM495.597 707.6C493.101 711.536 489.021 715.232 483.357 718.688C477.789 722.144 471.309 723.872 463.917 723.872C457.005 723.872 451.293 722.384 446.781 719.408C442.365 716.432 439.149 712.544 437.133 707.744C435.117 702.944 434.109 697.712 434.109 692.048C434.109 682.448 436.029 673.712 439.869 665.84C443.805 657.872 449.133 651.584 455.853 646.976C462.573 642.368 470.061 640.064 478.317 640.064C485.709 640.064 491.181 641.792 494.733 645.248C498.381 648.608 500.205 653.024 500.205 658.496C500.205 665.408 497.709 671.168 492.717 675.776C487.725 680.384 481.725 683.84 474.717 686.144C467.709 688.352 461.085 689.552 454.845 689.744C454.653 696.656 455.757 702.224 458.157 706.448C460.653 710.672 464.397 712.784 469.389 712.784C477.645 712.784 485.133 708.944 491.853 701.264L495.597 707.6ZM473.997 648.992C468.333 648.992 463.869 652.4 460.605 659.216C457.341 666.032 455.421 673.616 454.845 681.968C458.589 681.776 462.525 680.768 466.653 678.944C470.877 677.12 474.381 674.576 477.165 671.312C480.045 667.952 481.485 664.112 481.485 659.792C481.485 656.336 480.813 653.696 479.469 651.872C478.221 649.952 476.397 648.992 473.997 648.992ZM491.709 595.136L503.373 606.512C502.509 608.048 500.253 610.544 496.605 614C492.957 617.36 489.021 620.672 484.797 623.936C480.573 627.2 477.117 629.408 474.429 630.56L468.957 625.232L491.709 595.136ZM531.519 657.776C534.975 652.592 539.103 648.368 543.903 645.104C548.703 641.84 553.743 640.208 559.023 640.208C564.399 640.208 568.575 641.648 571.551 644.528C574.623 647.312 576.399 651.824 576.879 658.064C580.239 652.496 584.319 648.128 589.119 644.96C594.015 641.792 599.295 640.208 604.959 640.208C616.959 640.208 622.959 647.264 622.959 661.376C622.959 664.448 621.999 671.552 620.079 682.688L619.503 686.432L618.783 690.176C617.151 699.104 616.287 705.248 616.191 708.608C616.191 711.392 617.007 712.784 618.639 712.784C619.503 712.784 620.415 712.544 621.375 712.064C622.431 711.488 623.823 710.48 625.551 709.04L627.423 713.504C626.079 715.52 623.727 717.68 620.367 719.984C617.007 722.288 612.975 723.44 608.271 723.44C603.759 723.44 600.639 722.528 598.911 720.704C597.183 718.88 596.319 716.432 596.319 713.36C596.319 711.44 596.607 708.656 597.183 705.008C597.759 701.264 598.383 697.52 599.055 693.776L599.631 690.464C600.783 683.936 601.599 678.8 602.079 675.056C602.655 671.312 602.943 667.664 602.943 664.112C602.943 659.696 602.415 656.672 601.359 655.04C600.399 653.408 598.671 652.592 596.175 652.592C593.103 652.592 589.743 654.08 586.095 657.056C582.543 660.032 579.471 663.824 576.879 668.432C576.495 674.096 575.871 680.096 575.007 686.432L570.543 722H551.103L555.279 690.608C557.007 678.704 557.871 669.68 557.871 663.536C557.775 659.12 557.151 656.192 555.999 654.752C554.943 653.312 553.023 652.592 550.239 652.592C547.167 652.592 543.663 654.272 539.727 657.632C535.887 660.992 532.671 665.024 530.079 669.728L522.879 722H504.159L513.375 653.456L506.031 649.568L507.183 643.664L529.647 640.208L532.959 641.792L531.519 657.776ZM655.113 707.6C655.017 708.08 654.969 708.656 654.969 709.328C654.969 711.632 655.785 712.784 657.417 712.784C658.281 712.784 659.241 712.496 660.297 711.92C661.353 711.344 662.697 710.384 664.329 709.04L666.201 713.504C664.569 715.712 662.121 717.92 658.857 720.128C655.689 722.336 651.801 723.44 647.193 723.44C643.449 723.44 640.521 722.72 638.409 721.28C636.297 719.744 635.241 717.68 635.241 715.088L635.385 713.648C635.961 708.656 637.929 694.16 641.289 670.16L643.593 653.456L635.097 649.424L636.105 643.808L660.873 640.352L664.329 641.936L655.113 707.6ZM656.697 626.528C654.105 626.528 651.849 625.568 649.929 623.648C648.105 621.632 647.193 619.328 647.193 616.736C647.193 613.184 648.345 610.208 650.649 607.808C653.049 605.408 656.073 604.208 659.721 604.208C662.697 604.208 665.049 605.168 666.777 607.088C668.505 608.912 669.369 611.12 669.369 613.712C669.369 617.36 668.265 620.432 666.057 622.928C663.849 625.328 660.729 626.528 656.697 626.528ZM699.791 657.632C703.343 652.352 707.567 648.128 712.463 644.96C717.359 641.792 722.495 640.208 727.871 640.208C739.775 640.208 745.727 647.264 745.727 661.376C745.727 665.12 744.527 673.472 742.127 686.432C741.743 688.928 741.407 690.848 741.119 692.192C739.775 699.776 739.055 705.248 738.959 708.608V709.184C738.959 711.584 739.727 712.784 741.263 712.784C742.127 712.784 743.039 712.544 743.999 712.064C744.959 711.584 746.207 710.72 747.743 709.472L749.759 713.936C748.319 715.952 745.967 718.064 742.703 720.272C739.439 722.384 735.455 723.44 730.751 723.44C726.239 723.44 723.119 722.48 721.391 720.56C719.663 718.544 718.799 715.904 718.799 712.64C718.895 709.76 719.807 704.048 721.535 695.504L722.399 690.608C722.591 689.744 722.975 687.44 723.551 683.696C724.223 679.952 724.751 676.4 725.135 673.04C725.519 669.584 725.711 666.608 725.711 664.112C725.711 659.696 725.183 656.672 724.127 655.04C723.167 653.408 721.391 652.592 718.799 652.592C715.631 652.592 712.079 654.368 708.143 657.92C704.303 661.472 700.991 665.744 698.207 670.736L691.295 722H672.431L681.647 653.456L674.303 649.568L675.455 643.664L697.919 640.208L701.231 641.792L699.791 657.632ZM777.822 707.6C777.726 708.08 777.678 708.656 777.678 709.328C777.678 711.632 778.494 712.784 780.126 712.784C780.99 712.784 781.95 712.496 783.006 711.92C784.062 711.344 785.406 710.384 787.038 709.04L788.91 713.504C787.278 715.712 784.83 717.92 781.566 720.128C778.398 722.336 774.51 723.44 769.902 723.44C766.158 723.44 763.23 722.72 761.118 721.28C759.006 719.744 757.95 717.68 757.95 715.088L758.094 713.648C758.67 708.656 760.638 694.16 763.998 670.16L766.302 653.456L757.806 649.424L758.814 643.808L783.582 640.352L787.038 641.936L777.822 707.6ZM779.406 626.528C776.814 626.528 774.558 625.568 772.638 623.648C770.814 621.632 769.902 619.328 769.902 616.736C769.902 613.184 771.054 610.208 773.358 607.808C775.758 605.408 778.782 604.208 782.43 604.208C785.406 604.208 787.758 605.168 789.486 607.088C791.214 608.912 792.078 611.12 792.078 613.712C792.078 617.36 790.974 620.432 788.766 622.928C786.558 625.328 783.438 626.528 779.406 626.528ZM822.5 657.632C826.052 652.352 830.276 648.128 835.172 644.96C840.068 641.792 845.204 640.208 850.58 640.208C862.484 640.208 868.436 647.264 868.436 661.376C868.436 665.12 867.236 673.472 864.836 686.432C864.452 688.928 864.116 690.848 863.828 692.192C862.484 699.776 861.764 705.248 861.668 708.608V709.184C861.668 711.584 862.436 712.784 863.972 712.784C864.836 712.784 865.748 712.544 866.708 712.064C867.668 711.584 868.916 710.72 870.452 709.472L872.468 713.936C871.028 715.952 868.676 718.064 865.412 720.272C862.148 722.384 858.164 723.44 853.46 723.44C848.948 723.44 845.828 722.48 844.1 720.56C842.372 718.544 841.508 715.904 841.508 712.64C841.604 709.76 842.516 704.048 844.244 695.504L845.108 690.608C845.3 689.744 845.684 687.44 846.26 683.696C846.932 679.952 847.46 676.4 847.844 673.04C848.228 669.584 848.42 666.608 848.42 664.112C848.42 659.696 847.892 656.672 846.836 655.04C845.876 653.408 844.1 652.592 841.508 652.592C838.34 652.592 834.788 654.368 830.852 657.92C827.012 661.472 823.7 665.744 820.916 670.736L814.004 722H795.14L804.356 653.456L797.012 649.568L798.164 643.664L820.628 640.208L823.94 641.792L822.5 657.632Z" fill="white"/>
</svg>
